;Generated with Cura_SteamEngine DEV
M109 S210     ;Heatup to 210C
G21           ;metric values
G90           ;absolute positioning
G28           ;Home
G1 Z15.0 F300 ;move the platform down 15mm
G92 E0        ;zero the extruded length
G1 F200 E5    ;extrude 5mm of feed stock
G92 E0        ;zero the extruded length again

;Layer count: 2917
;LAYER:0
M107
;LAYER:1
M106 S127
;LAYER:2
M106 S255
;LAYER:3
;LAYER:4
;LAYER:5
;LAYER:6
;LAYER:7
;LAYER:8
;LAYER:9
;LAYER:10
;LAYER:11
;LAYER:12
;LAYER:13
;LAYER:14
;LAYER:15
;LAYER:16
;LAYER:17
;LAYER:18
;LAYER:19
;LAYER:20
;LAYER:21
;LAYER:22
;LAYER:23
;LAYER:24
;LAYER:25
;LAYER:26
;LAYER:27
;LAYER:28
;LAYER:29
;LAYER:30
;LAYER:31
;LAYER:32
;LAYER:33
;LAYER:34
;LAYER:35
;LAYER:36
;LAYER:37
;LAYER:38
;LAYER:39
;LAYER:40
;LAYER:41
;LAYER:42
;LAYER:43
;LAYER:44
;LAYER:45
;LAYER:46
;LAYER:47
;LAYER:48
;LAYER:49
;LAYER:50
;LAYER:51
;LAYER:52
;LAYER:53
;LAYER:54
;LAYER:55
;LAYER:56
;LAYER:57
;LAYER:58
;LAYER:59
;LAYER:60
;LAYER:61
;LAYER:62
;LAYER:63
;LAYER:64
;LAYER:65
;LAYER:66
;LAYER:67
;LAYER:68
;LAYER:69
;LAYER:70
;LAYER:71
;LAYER:72
;LAYER:73
;LAYER:74
;LAYER:75
;LAYER:76
;LAYER:77
;LAYER:78
;LAYER:79
;LAYER:80
;LAYER:81
;LAYER:82
;LAYER:83
;LAYER:84
;LAYER:85
;LAYER:86
;LAYER:87
;LAYER:88
;LAYER:89
;LAYER:90
;LAYER:91
;LAYER:92
;LAYER:93
;LAYER:94
;LAYER:95
;LAYER:96
;LAYER:97
;LAYER:98
;LAYER:99
;LAYER:100
;LAYER:101
;LAYER:102
;LAYER:103
;LAYER:104
;LAYER:105
;LAYER:106
;LAYER:107
;LAYER:108
;LAYER:109
;LAYER:110
;LAYER:111
;LAYER:112
;LAYER:113
;LAYER:114
;LAYER:115
;LAYER:116
;LAYER:117
;LAYER:118
;LAYER:119
;LAYER:120
;LAYER:121
;LAYER:122
;LAYER:123
;LAYER:124
;LAYER:125
;LAYER:126
;LAYER:127
;LAYER:128
;LAYER:129
;LAYER:130
;LAYER:131
;LAYER:132
;LAYER:133
;LAYER:134
;LAYER:135
;LAYER:136
;LAYER:137
;LAYER:138
;LAYER:139
;LAYER:140
;LAYER:141
;LAYER:142
;LAYER:143
;LAYER:144
;LAYER:145
;LAYER:146
;LAYER:147
;LAYER:148
;LAYER:149
;LAYER:150
G1 F2700 E-4.50000
G0 F9000 X-69.393 Y-114.204 Z30.300
;TYPE:WALL-OUTER
G1 F2700 E0.00000
G1 F600 X-74.447 Y-116.729 E0.06890
G1 X-74.268 Y-117.087 E0.07378
G1 X-81.850 Y-120.878 E0.17716
G1 X-82.249 Y-121.078 E0.18261
G1 X-69.215 Y-114.561 E0.36033
G1 X-69.393 Y-114.204 E0.36519
G0 F9000 X-69.444 Y-114.416
;TYPE:FILL
G1 F600 X-69.737 Y-114.709 E0.37025
G0 F9000 X-70.511 Y-114.918
G1 F600 X-71.134 Y-115.540 E0.38098
G0 F9000 X-71.641 Y-115.482
G1 F600 X-72.530 Y-116.371 E0.39632
G0 F9000 X-72.771 Y-116.046
G1 F600 X-73.926 Y-117.201 E0.41624
G0 F9000 X-74.200 Y-116.910
G1 F600 X-73.565 Y-116.442 E0.42138
G1 X-72.908 Y-116.596 E0.42961
;LAYER:151
;LAYER:152
;LAYER:153
;LAYER:154
;LAYER:155
;LAYER:156
;LAYER:157
;LAYER:158
;LAYER:159
;LAYER:160
;LAYER:161
;LAYER:162
;LAYER:163
;LAYER:164
;LAYER:165
;LAYER:166
;LAYER:167
;LAYER:168
;LAYER:169
;LAYER:170
;LAYER:171
;LAYER:172
;LAYER:173
;LAYER:174
;LAYER:175
;LAYER:176
;LAYER:177
G1 F2700 E-4.07039
G0 F9000 X-82.111 Y-118.308 Z35.700
;TYPE:WALL-OUTER
G1 F2700 E0.42961
G1 F600 X-82.290 Y-117.951 E0.43448
G1 X-89.722 Y-121.667 E0.53582
G1 X-89.543 Y-122.023 E0.54068
G1 X-82.111 Y-118.308 E0.64201
;LAYER:178
;LAYER:179
;LAYER:180
;LAYER:181
;LAYER:182
;LAYER:183
;LAYER:184
;LAYER:185
;LAYER:186
;LAYER:187
;LAYER:188
;LAYER:189
;LAYER:190
;LAYER:191
;LAYER:192
;LAYER:193
;LAYER:194
;LAYER:195
;LAYER:196
;LAYER:197
;LAYER:198
;LAYER:199
;LAYER:200
;LAYER:201
;LAYER:202
;LAYER:203
;LAYER:204
;LAYER:205
;LAYER:206
;LAYER:207
;LAYER:208
;LAYER:209
;LAYER:210
;LAYER:211
;LAYER:212
;LAYER:213
;LAYER:214
;LAYER:215
;LAYER:216
;LAYER:217
;LAYER:218
;LAYER:219
;LAYER:220
G1 F2700 E-3.85799
G0 F9000 X-79.458 Y-111.788 Z44.300
;TYPE:WALL-INNER
G1 F2700 E0.64201
G1 F600 X-73.436 Y-108.777 E0.72412
G1 X-72.015 Y-108.068 E0.74349
G1 X-68.592 Y-106.355 E0.79017
G1 X-68.095 Y-106.107 E0.79694
G1 X-59.624 Y-101.872 E0.91244
G1 X-58.755 Y-101.437 E0.92429
G1 X-79.458 Y-111.788 E1.20658
G1 F2700 E-3.29342
G0 F9000 X-85.816 Y-115.415
;TYPE:WALL-OUTER
G1 F2700 E1.20658
G1 F600 X-86.302 Y-115.658 E1.21321
G1 X-86.123 Y-116.014 E1.21807
G1 X-85.637 Y-115.772 E1.22469
G1 X-85.816 Y-115.415 E1.22956
;LAYER:221
G0 F9000 X-86.200 Y-115.507 Z44.500
;TYPE:WALL-OUTER
G1 F600 X-86.021 Y-115.863 E1.23442
G1 X-84.388 Y-115.047 E1.25668
G1 X-84.567 Y-114.690 E1.26155
G1 X-86.200 Y-115.507 E1.28382
;LAYER:222
;LAYER:223
;LAYER:224
;LAYER:225
;LAYER:226
;LAYER:227
;LAYER:228
;LAYER:229
;LAYER:230
;LAYER:231
;LAYER:232
;LAYER:233
;LAYER:234
;LAYER:235
;LAYER:236
;LAYER:237
;LAYER:238
G0 F9000 X-60.116 Y-101.658 Z47.900
;TYPE:WALL-INNER
G1 F600 X-55.163 Y-99.183 E1.35135
G1 X-55.393 Y-98.724 E1.35761
G1 X-60.116 Y-101.658 E1.42542
G0 F9000 X-60.291 Y-101.298
;TYPE:WALL-OUTER
G1 F600 X-54.472 Y-98.389 E1.50476
G1 X-54.647 Y-98.034 E1.50959
G1 X-60.291 Y-101.298 E1.58910
G1 F2700 E-2.91090
G0 F9000 X-56.184 Y-99.378
;TYPE:FILL
G1 F2700 E1.58910
G1 F600 X-56.079 Y-99.484 E1.59092
;LAYER:239
;LAYER:240
;LAYER:241
;LAYER:242
;LAYER:243
;LAYER:244
;LAYER:245
;LAYER:246
;LAYER:247
;LAYER:248
;LAYER:249
;LAYER:250
;LAYER:251
;LAYER:252
;LAYER:253
;LAYER:254
;LAYER:255
;LAYER:256
;LAYER:257
;LAYER:258
;LAYER:259
;LAYER:260
;LAYER:261
;LAYER:262
;LAYER:263
;LAYER:264
;LAYER:265
;LAYER:266
;LAYER:267
;LAYER:268
;LAYER:269
G0 F9000 X-54.962 Y-94.641 Z54.100
;TYPE:WALL-INNER
G1 F600 X-54.207 Y-94.263 E1.60122
G1 X-54.154 Y-94.236 E1.60194
G1 X-55.702 Y-95.010 E1.62305
G1 X-55.427 Y-95.555 E1.63049
G1 X-54.962 Y-94.641 E1.64300
G0 F9000 X-54.029 Y-94.621
;TYPE:WALL-OUTER
G1 F600 X-55.880 Y-95.546 E1.66824
G1 X-55.721 Y-95.862 E1.67255
G1 X-54.029 Y-94.621 E1.69814
;LAYER:270
;LAYER:271
;LAYER:272
;LAYER:273
;LAYER:274
;LAYER:275
;LAYER:276
;LAYER:277
;LAYER:278
;LAYER:279
;LAYER:280
;LAYER:281
;LAYER:282
;LAYER:283
;LAYER:284
;LAYER:285
;LAYER:286
;LAYER:287
;LAYER:288
;LAYER:289
;LAYER:290
;LAYER:291
;LAYER:292
;LAYER:293
;LAYER:294
;LAYER:295
;LAYER:296
;LAYER:297
;LAYER:298
G1 F2700 E-2.80186
G0 F9000 X-47.326 Y-87.921 Z59.900
;TYPE:WALL-INNER
G1 F2700 E1.69814
G1 F600 X-44.990 Y-86.754 E1.72999
G1 X-44.625 Y-86.571 E1.73497
G1 X-47.326 Y-87.921 E1.77179
G0 F9000 X-44.990 Y-87.202
;TYPE:WALL-OUTER
G1 F600 X-55.157 Y-92.285 E1.91042
G1 X-54.978 Y-92.643 E1.91530
G1 X-44.812 Y-87.559 E2.05392
G1 X-44.990 Y-87.202 E2.05878
;LAYER:299
;LAYER:300
;LAYER:301
;LAYER:302
;LAYER:303
;LAYER:304
;LAYER:305
;LAYER:306
;LAYER:307
;LAYER:308
;LAYER:309
;LAYER:310
;LAYER:311
;LAYER:312
;LAYER:313
;LAYER:314
;LAYER:315
;LAYER:316
;LAYER:317
;LAYER:318
;LAYER:319
;LAYER:320
;LAYER:321
;LAYER:322
;LAYER:323
;LAYER:324
;LAYER:325
;LAYER:326
G1 F2700 E-2.44122
G0 F9000 X-33.278 Y-78.546 Z65.500
;TYPE:WALL-OUTER
G1 F2700 E2.05878
G1 F660 X-59.110 Y-91.460 E2.41100
G1 X-59.002 Y-91.676 E2.41394
G1 X-33.278 Y-78.546 E2.76616
;LAYER:327
;LAYER:328
;LAYER:329
;LAYER:330
;LAYER:331
;LAYER:332
G0 F9000 X-32.664 Y-78.086 Z66.700
;TYPE:WALL-OUTER
G1 F600 X-32.206 Y-77.857 E2.77241
G1 X-32.385 Y-77.500 E2.77728
G1 X-32.843 Y-77.728 E2.78352
G1 X-32.664 Y-78.086 E2.78840
;LAYER:333
;LAYER:334
;LAYER:335
;LAYER:336
;LAYER:337
;LAYER:338
;LAYER:339
;LAYER:340
;LAYER:341
;LAYER:342
;LAYER:343
;LAYER:344
;LAYER:345
;LAYER:346
;LAYER:347
G1 F2700 E-1.71160
G0 F9000 X-43.162 Y-81.388 Z69.700
;TYPE:WALL-OUTER
G1 F2700 E2.78840
G1 F600 X-43.142 Y-81.378 E2.78867
G1 X-44.735 Y-82.174 E2.81039
G1 X-44.562 Y-82.534 E2.81526
G1 X-42.987 Y-81.747 E2.83674
G1 X-43.162 Y-81.388 E2.84161
G0 F9000 X-43.291 Y-81.442
;TYPE:FILL
G1 F600 X-43.667 Y-81.348 E2.84483
G1 X-43.657 Y-81.924 E2.85151
G1 X-44.422 Y-81.725 E2.85816
G1 X-44.223 Y-82.207 E2.86452
;LAYER:348
;LAYER:349
;LAYER:350
;LAYER:351
;LAYER:352
;LAYER:353
;LAYER:354
;LAYER:355
;LAYER:356
;LAYER:357
;LAYER:358
;LAYER:359
;LAYER:360
;LAYER:361
;LAYER:362
;LAYER:363
;LAYER:364
;LAYER:365
;LAYER:366
;LAYER:367
;LAYER:368
;LAYER:369
;LAYER:370
G0 F9000 X-71.478 Y-93.691 Z74.300
;TYPE:WALL-OUTER
G1 F600 X-71.657 Y-93.334 E2.86939
G1 X-72.032 Y-93.968 E2.87837
G1 X-71.478 Y-93.691 E2.88593
;LAYER:371
G0 F9000 X-71.526 Y-93.615 Z74.500
;TYPE:WALL-OUTER
G1 F600 X-71.705 Y-93.258 E2.89080
G1 X-71.924 Y-93.813 E2.89807
G1 X-71.526 Y-93.615 E2.90349
;LAYER:372
;LAYER:373
;LAYER:374
;LAYER:375
;LAYER:376
;LAYER:377
G1 F2700 E-1.59651
G0 F9000 X-25.656 Y-69.635 Z75.700
;TYPE:WALL-OUTER
G1 F2700 E2.90349
G1 F600 X-25.647 Y-69.653 E2.90374
G1 X-25.079 Y-69.347 E2.91161
G1 X-25.656 Y-69.635 E2.91947
;LAYER:378
;LAYER:379
;LAYER:380
G0 F9000 X-37.814 Y-75.860 Z76.300
;TYPE:WALL-OUTER
G1 F600 X-37.990 Y-75.504 E2.92432
G1 X-46.394 Y-80.150 E3.04143
G1 X-46.472 Y-80.190 E3.04250
G1 X-37.814 Y-75.860 E3.16055
;LAYER:381
;LAYER:382
;LAYER:383
;LAYER:384
;LAYER:385
;LAYER:386
;LAYER:387
;LAYER:388
;LAYER:389
;LAYER:390
;LAYER:391
;LAYER:392
;LAYER:393
;LAYER:394
;LAYER:395
;LAYER:396
;LAYER:397
;LAYER:398
;LAYER:399
;LAYER:400
;LAYER:401
;LAYER:402
;LAYER:403
;LAYER:404
;LAYER:405
;LAYER:406
;LAYER:407
;LAYER:408
;LAYER:409
;LAYER:410
;LAYER:411
G1 F2700 E-1.33945
G0 F9000 X-20.345 Y-64.026 Z82.500
;TYPE:WALL-OUTER
G1 F2700 E3.16055
G1 F600 X-20.157 Y-63.487 E3.16752
G1 X-19.817 Y-63.315 E3.17216
G1 X-20.524 Y-63.668 E3.18180
G1 X-20.345 Y-64.026 E3.18668
;LAYER:412
;LAYER:413
;LAYER:414
;LAYER:415
;LAYER:416
;LAYER:417
;LAYER:418
;LAYER:419
;LAYER:420
;LAYER:421
;LAYER:422
;LAYER:423
;LAYER:424
;LAYER:425
;LAYER:426
;LAYER:427
;LAYER:428
;LAYER:429
;LAYER:430
;LAYER:431
;LAYER:432
;LAYER:433
;LAYER:434
;LAYER:435
;LAYER:436
;LAYER:437
;LAYER:438
;LAYER:439
;LAYER:440
;LAYER:441
;LAYER:442
;LAYER:443
;LAYER:444
G0 F9000 X-38.094 Y-69.153 Z89.100
;TYPE:WALL-OUTER
G1 F720 X-64.565 Y-82.389 E3.54762
G1 X-64.386 Y-82.746 E3.55249
G1 X-38.094 Y-69.153 E3.91346
;LAYER:445
;LAYER:446
;LAYER:447
;LAYER:448
;LAYER:449
;LAYER:450
;LAYER:451
;LAYER:452
;LAYER:453
;LAYER:454
;LAYER:455
;LAYER:456
;LAYER:457
;LAYER:458
;LAYER:459
;LAYER:460
;LAYER:461
;LAYER:462
;LAYER:463
;LAYER:464
;LAYER:465
;LAYER:466
;LAYER:467
;LAYER:468
;LAYER:469
;LAYER:470
;LAYER:471
;LAYER:472
;LAYER:473
;LAYER:474
G1 F2700 E-0.58654
G0 F9000 X-49.934 Y-72.520 Z95.100
;TYPE:WALL-OUTER
G1 F2700 E3.91346
G1 F600 X-50.112 Y-72.181 E3.91813
G1 X-54.266 Y-74.686 E3.97729
G1 X-54.963 Y-75.035 E3.98679
G1 X-54.990 Y-75.050 E3.98717
G1 X-49.934 Y-72.520 E4.05612
;LAYER:475
;LAYER:476
;LAYER:477
;LAYER:478
;LAYER:479
;LAYER:480
;LAYER:481
;LAYER:482
;LAYER:483
;LAYER:484
;LAYER:485
;LAYER:486
;LAYER:487
;LAYER:488
;LAYER:489
;LAYER:490
;LAYER:491
;LAYER:492
;LAYER:493
;LAYER:494
G1 F2700 E-0.44388
G0 F9000 X-59.442 Y-74.827 Z99.100
;TYPE:WALL-OUTER
G1 F2700 E4.05612
G1 F660 X-34.544 Y-62.379 E4.39560
G1 X-34.530 Y-62.372 E4.39579
G1 X-59.442 Y-74.827 E4.73546
;LAYER:495
;LAYER:496
;LAYER:497
;LAYER:498
;LAYER:499
;LAYER:500
;LAYER:501
;LAYER:502
;LAYER:503
;LAYER:504
;LAYER:505
;LAYER:506
;LAYER:507
G1 F2700 E0.23546
G0 F9000 X-50.511 Y-69.510 Z101.700
;TYPE:WALL-OUTER
G1 F2700 E4.73546
G1 F600 X-50.522 Y-69.516 E4.73562
G1 X-36.431 Y-62.469 E4.92776
G1 X-50.511 Y-69.510 E5.11975
;LAYER:508
;LAYER:509
;LAYER:510
;LAYER:511
;LAYER:512
;LAYER:513
;LAYER:514
G1 F2700 E0.61975
G0 F9000 X-56.666 Y-71.886 Z103.100
;TYPE:WALL-OUTER
G1 F2700 E5.11975
G1 F600 X-56.845 Y-71.529 E5.12462
G1 X-57.298 Y-72.202 E5.13451
G1 X-56.666 Y-71.886 E5.14313
;LAYER:515
;LAYER:516
;LAYER:517
;LAYER:518
;LAYER:519
;LAYER:520
;LAYER:521
;LAYER:522
;LAYER:523
;LAYER:524
;LAYER:525
;LAYER:526
;LAYER:527
;LAYER:528
;LAYER:529
;LAYER:530
;LAYER:531
;LAYER:532
;LAYER:533
G0 F9000 X-16.485 Y-49.896 Z106.900
;TYPE:WALL-OUTER
G1 F600 X-7.966 Y-45.636 E5.25929
G1 X-8.144 Y-45.279 E5.26415
G1 X-16.664 Y-49.538 E5.38032
G1 X-16.485 Y-49.896 E5.38520
;LAYER:534
;LAYER:535
;LAYER:536
;LAYER:537
;LAYER:538
;LAYER:539
G1 F2700 E0.88520
G0 F9000 X-14.854 Y-47.585 Z108.100
;TYPE:WALL-INNER
G1 F2700 E5.38520
G1 F600 X-7.194 Y-43.756 E5.48964
G1 X-6.934 Y-43.625 E5.49319
G1 X-14.854 Y-47.585 E5.60118
G1 F2700 E1.10118
G0 F9000 X-21.810 Y-51.512
;TYPE:WALL-OUTER
G1 F2700 E5.60118
G1 F600 X-21.730 Y-51.471 E5.60228
G1 X-23.976 Y-52.594 E5.63290
G1 X-23.814 Y-52.917 E5.63731
G1 X-21.810 Y-51.512 E5.66716
;LAYER:540
G0 F9000 X-23.840 Y-52.426 Z108.300
;TYPE:WALL-OUTER
G1 F600 X-23.665 Y-52.774 E5.67191
G1 X-15.547 Y-48.280 E5.78507
G1 X-15.465 Y-48.238 E5.78619
G1 X-23.840 Y-52.426 E5.90039
;LAYER:541
;LAYER:542
;LAYER:543
;LAYER:544
;LAYER:545
;LAYER:546
;LAYER:547
;LAYER:548
;LAYER:549
;LAYER:550
;LAYER:551
;LAYER:552
;LAYER:553
;LAYER:554
;LAYER:555
;LAYER:556
;LAYER:557
;LAYER:558
;LAYER:559
;LAYER:560
;LAYER:561
;LAYER:562
;LAYER:563
;LAYER:564
;LAYER:565
;LAYER:566
;LAYER:567
;LAYER:568
;LAYER:569
;LAYER:570
;LAYER:571
;LAYER:572
;LAYER:573
;LAYER:574
;LAYER:575
G1 F2700 E1.40039
G0 F9000 X-40.325 Y-56.722 Z115.300
;TYPE:WALL-INNER
G1 F2700 E5.90039
G1 F960 X-49.170 Y-61.143 E6.02099
G1 X-48.632 Y-62.214 E6.03560
G1 X-49.283 Y-62.542 E6.04449
G1 X-40.628 Y-58.216 E6.16250
G1 X-41.165 Y-57.143 E6.17713
G1 X-40.325 Y-56.722 E6.18859
G0 F9000 X-39.817 Y-56.915
;TYPE:WALL-OUTER
G1 F960 X-49.347 Y-61.680 E6.31853
G1 X-49.169 Y-62.037 E6.32340
G1 X-39.638 Y-57.273 E6.45334
G1 X-39.817 Y-56.915 E6.45823
G0 F9000 X-41.074 Y-57.637
;TYPE:FILL
G1 F960 X-41.628 Y-57.084 E6.46777
G0 F9000 X-42.004 Y-57.272
G1 F960 X-41.010 Y-58.267 E6.48492
G0 F9000 X-41.372 Y-58.470
G1 F960 X-42.382 Y-57.460 E6.50234
G0 F9000 X-42.760 Y-57.649
G1 F960 X-41.736 Y-58.672 E6.52000
G0 F9000 X-42.099 Y-58.875
G1 F960 X-43.137 Y-57.837 E6.53790
G0 F9000 X-43.514 Y-58.025
G1 F960 X-42.462 Y-59.078 E6.55605
G0 F9000 X-42.825 Y-59.281
G1 F960 X-43.891 Y-58.214 E6.57445
G0 F9000 X-44.269 Y-58.402
G1 F960 X-43.188 Y-59.483 E6.59309
G0 F9000 X-43.551 Y-59.686
G1 F960 X-44.646 Y-58.591 E6.61198
G0 F9000 X-45.023 Y-58.779
G1 F960 X-43.914 Y-59.889 E6.63111
G0 F9000 X-44.277 Y-60.091
G1 F960 X-45.400 Y-58.968 E6.65048
G0 F9000 X-45.778 Y-59.156
G1 F960 X-44.640 Y-60.294 E6.67011
G0 F9000 X-45.003 Y-60.496
G1 F960 X-46.154 Y-59.345 E6.68996
G0 F9000 X-46.532 Y-59.533
G1 F960 X-45.366 Y-60.699 E6.71007
G0 F9000 X-45.730 Y-60.901
G1 F960 X-46.909 Y-59.722 E6.73040
G0 F9000 X-47.287 Y-59.910
G1 F960 X-46.092 Y-61.104 E6.75101
G0 F9000 X-46.456 Y-61.306
G1 F960 X-47.663 Y-60.099 E6.77182
G0 F9000 X-48.041 Y-60.287
G1 F960 X-46.818 Y-61.509 E6.79291
G0 F9000 X-47.182 Y-61.712
G1 F960 X-48.418 Y-60.476 E6.81423
G0 F9000 X-48.796 Y-60.664
G1 F960 X-47.545 Y-61.914 E6.83579
G0 F9000 X-47.907 Y-62.117
G1 F960 X-49.143 Y-60.881 E6.85711
G0 F9000 X-48.572 Y-62.018
G1 F960 X-48.271 Y-62.320 E6.86231
;LAYER:576
;LAYER:577
;LAYER:578
;LAYER:579
;LAYER:580
G1 F2700 E2.36231
G0 F9000 X-50.118 Y-62.011 Z116.300
;TYPE:WALL-OUTER
G1 F2700 E6.86231
G1 F600 X-50.098 Y-62.002 E6.86258
G1 X-50.278 Y-61.645 E6.86745
G1 X-50.297 Y-61.655 E6.86772
G1 X-50.118 Y-62.011 E6.87258
;LAYER:581
;LAYER:582
;LAYER:583
;LAYER:584
;LAYER:585
;LAYER:586
;LAYER:587
;LAYER:588
;LAYER:589
;LAYER:590
;LAYER:591
;LAYER:592
;LAYER:593
G0 F9000 X-13.704 Y-41.611 Z118.900
;TYPE:WALL-INNER
G1 F600 X-12.736 Y-41.127 E6.88578
G1 X-12.196 Y-40.857 E6.89314
G1 X-13.704 Y-41.611 E6.91370
G0 F9000 X-12.022 Y-41.218
;TYPE:WALL-OUTER
G1 F600 X-15.928 Y-43.170 E6.96695
G1 X-15.751 Y-43.508 E6.97161
G1 X-12.022 Y-41.218 E7.02497
;LAYER:594
;LAYER:595
G1 F2700 E2.52497
G0 F9000 X-6.715 Y-38.811 Z119.300
;TYPE:WALL-OUTER
G1 F2700 E7.02497
G1 F600 X-6.782 Y-38.845 E7.02589
G1 X-4.141 Y-37.524 E7.06190
G1 X-6.715 Y-38.811 E7.09700
;LAYER:596
G0 F9000 X-48.245 Y-59.475 Z119.500
;TYPE:WALL-OUTER
G1 F600 X-48.424 Y-59.118 E7.10187
G1 X-48.465 Y-59.585 E7.10759
G1 X-48.245 Y-59.475 E7.11059
;LAYER:597
;LAYER:598
;LAYER:599
;LAYER:600
;LAYER:601
;LAYER:602
;LAYER:603
;LAYER:604
;LAYER:605
;LAYER:606
;LAYER:607
;LAYER:608
;LAYER:609
;LAYER:610
;LAYER:611
;LAYER:612
;LAYER:613
;LAYER:614
;LAYER:615
G0 F9000 X-8.949 Y-37.898 Z123.300
;TYPE:WALL-OUTER
G1 F600 X6.173 Y-29.920 E7.31910
G1 X-9.116 Y-37.564 E7.52757
G1 X-8.949 Y-37.898 E7.53212
;LAYER:616
;LAYER:617
;LAYER:618
;LAYER:619
;LAYER:620
G1 F2700 E3.03212
G0 F9000 X-1.265 Y-33.558 Z124.300
;TYPE:WALL-OUTER
G1 F2700 E7.53212
G1 F600 X-1.435 Y-33.671 E7.53461
